X:1
T:James Gibb editions
T:O love that wilt not let me go (II) - Barnby
%%score [ ( 1 2 ) ( 3 4 ) ]
L:1/8
Q:1/4=75
M:4/4
K:D
V:1 treble nm="Midi_74"
V:2 treble 
V:3 bass nm="Midi_74"
V:4 bass 
V:1
"^George Matheson\n(1842-1906)""^88. 88. 6""^O love that wilt not let me go (II)""^Joseph Barnby\n(1838-96)" F2 | %1
 F2 F2 F2 F2 |"^1" A3 G G2 || F2 | E2 E^D E2 F2 | D2 F2 E2 || G2 | G2 G2 B2 G2 | F2 A2 G2 || %9
[M:4/4] A2 | B3 B d2 B2 | A2 =c2 B2 || !courtesy!^c2 | d2 A2 G!courtesy!^F E2 | D6 || G4 F4 |] %16
V:2
 D2 | D2 D2 D2 D2 | D3 D D2 || D2 | C2 C^B, C2 C2 | D2 D2 C2 || E2 | E2 E2 F2 E2 | E2 ^D2 E2 || %9
[M:4/4] F2 | G3 G A2 G2 | G2 F2 G2 || E2 | F2 D2 D2 C2 | D6 || D4 D4 |] %16
V:3
 A,2 | A,2 A,2"^1" ^A,2 A,2 | B,3 B, B,2 || A,2 | G,2 G,F, G,2 A,2 | F,2 ^G,2 A,2 || B,2 | %7
 B,2 B,2 B,2 B,2 | =C2 B,2 B,2 ||[M:4/4] D2 | %10
 D3 D D2"^1 O love that wilt not let me go,\nI rest my weary soul in thee;\nI give thee back the life I owe,\nthat in thine ocean depths its flow\nmay richer, fuller be.\n\n2 O light that followest all my way,\nI yield my flickering torch to thee;\nmy heart restores its borrowed ray,\nthat in thy sunshines blaze its day\nmay brighter, fairer be.\n\n3 O joy that seekest me through pain,\nI cannot close my heart to thee;\nI trace the rainbow through the rain,\nand feel the promise is not vain\nthat morn shall tearless be.\n\n4 O cross that liftest up my head,\nI dare not ask to fly from thee;\nI lay in dust lifes glory dead,\nand from the ground there blossoms red\nlife that shall endless be." D2 | %11
 E2 A,2 B,2 || _B,2 | A,2 F,2 B,A, G,2 | F,6 || B,4 A,4 |] %16
V:4
 D,2 | D,2 D,2 D,2 D,2 | D,3 D, D,2 || D,2- | A,,2 A,,2 A,,2 A,,2 | B,,2 E,2 A,,2 || E,2 | %7
 E,2 E,2 ^D,2 E,2 | A,,2 B,,2 E,2 ||[M:4/4] D,2 | G,3 G, F,2 G,2 | =C,2 D,2 G,2 || G,2 | %13
 A,2 A,2 A,,2 A,,2 | D,6 || G,,4 D,4 |] %16

